src/svg/cross.svg

<?xml version="1.0" encoding="UTF-8" standalone="no"?>
<svg width="35px" height="35px" viewBox="0 0 35 35" version="1.1" xmlns="http://www.w3.org/2000/svg" xmlns:xlink="http://www.w3.org/1999/xlink">
    <defs></defs>
    <g id="Page-1" stroke="none" stroke-width="1" fill="none" fill-rule="evenodd">
        <g id="cross">
            <g id="bg-copy" fill="#FFFFFF" opacity="0.00999999978">
                <rect id="bg" x="0" y="0" width="35" height="35"></rect>
            </g>
            <path d="M25,16 L18.99,16 L18.99,10 L16.01,10 L16.01,16 L10,16 L10,19 L16.01,19 L16.01,25 L18.99,25 L18.99,19 L25,19 L25,16 Z" id="cross-border" fill="#FFFFFF"></path>
            <path d="M23.9902,17.0103 L17.9902,17.0103 L17.9902,11.0003 L17.0102,11.0003 L17.0102,17.0103 L11.0102,17.0103 L11.0102,17.9903 L17.0102,17.9903 L17.0102,24.0003 L17.9902,24.0003 L17.9902,17.9903 L23.9902,17.9903 L23.9902,17.0103 Z" fill="#231F1F"></path>
        </g>
    </g>
</svg>

<svg height="35" viewBox="0 0 35 35" width="35" xmlns="http://www.w3.org/2000/svg"><g fill="none" fill-rule="evenodd"><path d="m25 16h-6.01v-6h-2.98v6h-6.01v3h6.01v6h2.98v-6h6.01z" fill="#fff"/><path d="m23.9902 17.0103h-6v-6.01h-.98v6.01h-6v.98h6v6.01h.98v-6.01h6z" fill="#231f1f"/></g></svg>
